X: 21271
M: C
L: 1/8
K: Bb
|:\
d2dB d2dB | defd B2Bd |
c2cA c2cA | FGFE D2B,2 :: \
deff ffff | gaba gfed |\
efgf edcB | Acgf fedc :|


